flaticon/constructions/socket-15.svg

<svg xmlns="http://www.w3.org/2000/svg" width="32" height="32" viewBox="0 0 24 24">
    <path d="M 17.601562 10.601562 C 17.601562 10.359375 17.441406 10.199219 17.199219 10.199219 L 16.398438 10.199219 C 16.160156 10.199219 16 10.359375 16 10.601562 C 16 10.839844 16.160156 11 16.398438 11 L 17.199219 11 C 17.441406 11 17.601562 10.839844 17.601562 10.601562 Z M 17.601562 10.601562"/>
    <path d="M 21.601562 1.800781 L 2.398438 1.800781 C 1.078125 1.800781 0 2.878906 0 4.199219 L 0 17 C 0 18.320312 1.078125 19.398438 2.398438 19.398438 L 16.398438 19.398438 C 16.398438 19.800781 16.480469 20.160156 16.640625 20.480469 C 17.121094 21.71875 18.601562 22.320312 19.960938 21.800781 C 20.761719 21.519531 22 21.558594 22.519531 22.078125 C 22.601562 22.160156 22.679688 22.199219 22.800781 22.199219 C 22.921875 22.199219 23 22.160156 23.078125 22.078125 C 23.238281 21.921875 23.238281 21.679688 23.078125 21.519531 C 22.320312 20.761719 20.71875 20.679688 19.679688 21.078125 C 18.71875 21.441406 17.71875 21.039062 17.359375 20.199219 C 17.238281 19.960938 17.199219 19.679688 17.199219 19.398438 L 21.601562 19.398438 C 22.921875 19.398438 24 18.320312 24 17 L 24 4.199219 C 24 2.878906 22.921875 1.800781 21.601562 1.800781 Z M 23.199219 17 C 23.199219 17.878906 22.480469 18.601562 21.601562 18.601562 L 17.199219 18.601562 L 17.199219 17.800781 L 21 17.800781 C 21.761719 17.800781 22.398438 17.160156 22.398438 16.398438 L 22.398438 4.800781 C 22.398438 4.039062 21.761719 3.398438 21 3.398438 L 3 3.398438 C 2.238281 3.398438 1.601562 4.039062 1.601562 4.800781 L 1.601562 16.398438 C 1.601562 17.160156 2.238281 17.800781 3 17.800781 L 16.398438 17.800781 L 16.398438 18.601562 L 2.398438 18.601562 C 1.519531 18.601562 0.800781 17.878906 0.800781 17 L 0.800781 4.199219 C 0.800781 3.320312 1.519531 2.601562 2.398438 2.601562 L 21.601562 2.601562 C 22.480469 2.601562 23.199219 3.320312 23.199219 4.199219 Z M 16.800781 11.398438 C 16.558594 11.398438 16.398438 11.558594 16.398438 11.800781 L 16.398438 13.800781 L 14.398438 13.800781 C 13.960938 13.800781 13.601562 13.441406 13.601562 13 L 13.601562 9.839844 C 13.601562 9.398438 13.761719 9 14.078125 8.679688 L 15.078125 7.679688 C 15.28125 7.519531 15.519531 7.398438 15.800781 7.398438 L 17.960938 7.441406 C 18.238281 7.441406 18.320312 7.519531 18.519531 7.71875 L 19.519531 8.71875 C 19.839844 9 20 9.398438 20 9.839844 L 20 13 C 20 13.441406 19.640625 13.800781 19.199219 13.800781 L 17.199219 13.800781 L 17.199219 11.800781 C 17.199219 11.558594 17.039062 11.398438 16.800781 11.398438 Z M 19.199219 14.601562 C 20.078125 14.601562 20.800781 13.878906 20.839844 13 L 20.839844 9.839844 C 20.839844 9.199219 20.558594 8.601562 20.121094 8.160156 L 19.121094 7.160156 C 18.761719 6.839844 18.320312 6.640625 17.839844 6.640625 L 15.800781 6.640625 C 15.320312 6.640625 14.878906 6.800781 14.519531 7.160156 L 13.519531 8.160156 C 13.039062 8.601562 12.800781 9.199219 12.800781 9.839844 L 12.800781 13 C 12.800781 13.878906 13.519531 14.601562 14.398438 14.601562 L 16.398438 14.601562 L 16.398438 17 L 3 17 C 2.679688 17 2.398438 16.71875 2.398438 16.398438 L 2.398438 4.800781 C 2.398438 4.480469 2.679688 4.199219 3 4.199219 L 21 4.199219 C 21.320312 4.199219 21.601562 4.480469 21.601562 4.800781 L 21.601562 16.398438 C 21.601562 16.71875 21.320312 17 21 17 L 17.199219 17 L 17.199219 14.601562 Z M 19.199219 14.601562"/>
    <path d="M 10.800781 6.601562 L 3.601562 6.601562 C 3.359375 6.601562 3.199219 6.761719 3.199219 7 L 3.199219 14.199219 C 3.199219 14.441406 3.359375 14.601562 3.601562 14.601562 L 10.800781 14.601562 C 11.039062 14.601562 11.199219 14.441406 11.199219 14.199219 L 11.199219 7 C 11.199219 6.761719 11.039062 6.601562 10.800781 6.601562 Z M 10.398438 13.800781 L 4 13.800781 L 4 7.398438 L 10.398438 7.398438 Z M 10.398438 13.800781"/>
    <path d="M8 12.601562L8.800781 12.601562C9.039062 12.601562 9.199219 12.441406 9.199219 12.199219 9.199219 11.960938 9.039062 11.800781 8.800781 11.800781L8 11.800781C7.761719 11.800781 7.601562 11.960938 7.601562 12.199219 7.601562 12.441406 7.761719 12.601562 8 12.601562zM5.601562 12.601562L6.398438 12.601562C6.640625 12.601562 6.800781 12.441406 6.800781 12.199219 6.800781 11.960938 6.640625 11.800781 6.398438 11.800781L5.601562 11.800781C5.359375 11.800781 5.199219 11.960938 5.199219 12.199219 5.199219 12.441406 5.359375 12.601562 5.601562 12.601562zM7.199219 10.199219C7.441406 10.199219 7.601562 10.039062 7.601562 9.800781L7.601562 8.601562C7.601562 8.359375 7.441406 8.199219 7.199219 8.199219 6.960938 8.199219 6.800781 8.359375 6.800781 8.601562L6.800781 9.800781C6.800781 10.039062 6.960938 10.199219 7.199219 10.199219zM7.199219 10.199219"/>
</svg>

<svg xmlns="http://www.w3.org/2000/svg" width="32" height="32" viewBox="0 0 24 24">
    <path d="M17.602 10.602c0-.243-.16-.403-.403-.403h-.8c-.239 0-.399.16-.399.403 0 .238.16.398.398.398h.801c.242 0 .403-.16.403-.398zm0 0"/>
    <path d="M21.602 1.8H2.398A2.404 2.404 0 0 0 0 4.2V17a2.404 2.404 0 0 0 2.398 2.398h14c0 .403.082.762.243 1.082.48 1.239 1.96 1.84 3.32 1.32.8-.28 2.039-.241 2.559.278.082.082.16.121.28.121.122 0 .2-.039.278-.12a.385.385 0 0 0 0-.56c-.758-.757-2.36-.84-3.398-.44-.961.362-1.961-.04-2.32-.88-.122-.238-.16-.52-.16-.8h4.402A2.404 2.404 0 0 0 24 17V4.2a2.404 2.404 0 0 0-2.398-2.4zM23.199 17c0 .879-.719 1.602-1.597 1.602h-4.403V17.8H21c.762 0 1.398-.64 1.398-1.403V4.801c0-.762-.636-1.403-1.398-1.403H3c-.762 0-1.398.641-1.398 1.403v11.597c0 .762.636 1.403 1.398 1.403h13.398v.8h-14A1.605 1.605 0 0 1 .801 17V4.2c0-.88.719-1.598 1.597-1.598h19.204c.878 0 1.597.718 1.597 1.597zm-6.398-5.602c-.242 0-.403.16-.403.403v2h-2a.801.801 0 0 1-.796-.801V9.84c0-.442.16-.84.476-1.16l1-1c.203-.16.442-.282.723-.282l2.16.043c.277 0 .36.079.559.278l1 1c.32.281.48.68.48 1.12V13c0 .441-.36.8-.8.8h-2v-2c0-.241-.16-.402-.4-.402zm2.398 3.204c.88 0 1.602-.723 1.64-1.602V9.84c0-.64-.28-1.238-.718-1.68l-1-1c-.36-.32-.8-.52-1.281-.52H15.8c-.48 0-.921.16-1.28.52l-1 1a2.237 2.237 0 0 0-.72 1.68V13c0 .879.72 1.602 1.598 1.602h2V17H3a.618.618 0 0 1-.602-.602V4.801c0-.32.282-.602.602-.602h18c.32 0 .602.281.602.602v11.597c0 .32-.282.602-.602.602h-3.8v-2.398zm0 0"/>
    <path d="M10.8 6.602H3.603c-.243 0-.403.16-.403.398v7.2c0 .241.16.402.403.402H10.8c.238 0 .398-.16.398-.403V7c0-.238-.16-.398-.398-.398zm-.402 7.199H4V7.398h6.398zm0 0"/>
    <path d="M8 12.602h.8c.24 0 .4-.16.4-.403 0-.238-.16-.398-.4-.398H8c-.238 0-.398.16-.398.398 0 .242.16.403.398.403zm0 0M5.602 12.602h.796c.243 0 .403-.16.403-.403 0-.238-.16-.398-.403-.398h-.796c-.243 0-.403.16-.403.398 0 .242.16.403.403.403zm0 0M7.2 10.2c.241 0 .402-.16.402-.4V8.603c0-.243-.16-.403-.403-.403-.238 0-.398.16-.398.403V9.8c0 .238.16.398.398.398zm0 0"/>
</svg>
